gtk-icons/Papirus-GTK/16x16/mimetypes/x-content-video-dvd.svg

<?xml version="1.0" encoding="UTF-8"?>
<svg xmlns="http://www.w3.org/2000/svg" xmlns:xlink="http://www.w3.org/1999/xlink" width="16px" height="16px" viewBox="0 0 16 16" version="1.1">
<g id="surface1">
<path style=" stroke:none;fill-rule:nonzero;fill:rgb(19.215686%,8.235294%,20.784314%);fill-opacity:1;" d="M 15 13.25 L 15 2.75 C 15 2.335938 14.664062 2 14.25 2 L 1.75 2 C 1.335938 2 1 2.335938 1 2.75 L 1 13.25 C 1 13.664062 1.335938 14 1.75 14 L 14.25 14 C 14.664062 14 15 13.664062 15 13.25 Z M 15 13.25 "/>
<path style=" stroke:none;fill-rule:nonzero;fill:rgb(100%,100%,100%);fill-opacity:0.8;" d="M 5 5.5 C 4.722656 5.5 4.5 5.722656 4.5 6 L 4.5 10 C 4.5 10.277344 4.722656 10.5 5 10.5 L 9.5 10.5 C 9.777344 10.5 10 10.277344 10 10 L 10 6 C 10 5.722656 9.777344 5.5 9.5 5.5 Z M 10 8 L 12 9.5 L 12 6.5 Z M 10 8 "/>
<path style=" stroke:none;fill-rule:nonzero;fill:rgb(100%,100%,100%);fill-opacity:0.0509804;" d="M 1.75 14 C 1.335938 14 1 13.664062 1 13.25 L 1 8 L 15 8 L 15 13.25 C 15 13.664062 14.664062 14 14.25 14 Z M 1.75 14 "/>
<path style=" stroke:none;fill-rule:nonzero;fill:rgb(0%,0%,0%);fill-opacity:0.301961;" d="M 1 12.75 L 1 13.25 C 1 13.664062 1.335938 14 1.75 14 L 14.25 14 C 14.664062 14 15 13.664062 15 13.25 L 15 12.75 C 15 13.164062 14.664062 13.5 14.25 13.5 L 1.75 13.5 C 1.335938 13.5 1 13.164062 1 12.75 Z M 1 12.75 "/>
<path style=" stroke:none;fill-rule:nonzero;fill:rgb(0%,0%,0%);fill-opacity:0.0509804;" d="M 1.75 2 C 1.335938 2 1 2.335938 1 2.75 L 1 8 L 15 8 L 15 2.75 C 15 2.335938 14.664062 2 14.25 2 Z M 1.75 2 "/>
</g>
</svg>

<?xml version="1.0" encoding="UTF-8" standalone="no"?>
<svg xmlns="http://www.w3.org/2000/svg" height="16px" width="16px" version="1.1" xmlns:xlink="http://www.w3.org/1999/xlink" viewBox="0 0 16 16">
 <g id="surface1">
  <path fill="#301435" d="m15 13.25v-10.5c0-0.4141-0.336-0.75-0.75-0.75h-12.5c-0.4141 0-0.75 0.3359-0.75 0.75v10.5c0 0.414 0.3359 0.75 0.75 0.75h12.5c0.414 0 0.75-0.336 0.75-0.75z"/>
  <path fill="#fff" d="m5 5.5c-0.2773 0-0.5 0.2227-0.5 0.5v4c0 0.277 0.2227 0.5 0.5 0.5h4.5c0.2773 0 0.5-0.223 0.5-0.5v-4c0-0.2773-0.2227-0.5-0.5-0.5zm5 2.5l2 1.5v-3z" fill-opacity=".8"/>
  <path fill="#fff" d="m1.75 14c-0.4141 0-0.75-0.336-0.75-0.75v-5.25h14v5.25c0 0.414-0.336 0.75-0.75 0.75z" fill-opacity=".050980"/>
  <path d="m1 12.75v0.5c0 0.414 0.3359 0.75 0.75 0.75h12.5c0.414 0 0.75-0.336 0.75-0.75v-0.5c0 0.414-0.336 0.75-0.75 0.75h-12.5c-0.4141 0-0.75-0.336-0.75-0.75z" fill-opacity=".30196"/>
  <path d="m1.75 2c-0.4141 0-0.75 0.3359-0.75 0.75v5.25h14v-5.25c0-0.4141-0.336-0.75-0.75-0.75z" fill-opacity=".050980"/>
 </g>
</svg>
